X:1
T:Rendid Honor al Señor - Intro
T:Rendid Honor al Señor - Intro
T:Jésed
C:Jésed
%%score 1 2 3
L:1/8
Q:1/4=100
M:2/4
K:G
V:1 treble transpose=-14 nm="Tenor Saxophone" snm="T. Sax."
V:2 treble transpose=-9 nm="Alto Saxophone" snm="A. Sax."
V:3 treble nm="Flute" snm="Fl."
V:1
[K:A] A4 | G3/2A3/2B |{/B} c4 | d/c/A d/c/A- | A2 |] %5
V:2
[K:E] e4 | d3/2e3/2f |{/f} g4 | a/g/e a/g/e- | e2 |] %5
V:3
"G" g4 |"D" f3/2g3/2a |"Em"{/a} b4 |"C" c'/b/g c'/b/g- |"G" g2 |] %5

